X:3112
T:Jomfru i ormehamn
C:anon.
O:Denmark
Z:Transcribed by Frank Nordberg - http://www.musicaviva.com
F:http://abc.musicaviva.com/tunes/denmark/jomfru-i-ormehamn.abc
M:4/2 %org.: C|
L:1/2
K:C %or Gmix
G|cc c/c/d|cG2A|_B(A/G/) (F/E/)F|G3G|
w:Der stod s\aa h\o-visk en jom-fru for her-re_ Jen--nus seng hun
cc/c/ cd|cG2G|EF AG/F/|(EG2)G|
w:b\od han-nem guld og ga-ve og der-til s\olv-fa-de fem_ Den
FD (C/D/)E/F/|GG3|]
